X:1
T:Ex altari tuo, Domine - Pitoni
T:#
%%score [ 1 2 3 4 ]
L:1/8
Q:1/4=200
M:none
K:C
V:1 treble nm="Soprano" snm="S"
V:2 treble nm="Alto" snm="A"
V:3 treble-8 nm="Tenor" snm="T"
V:4 bass nm="Bass" snm="B"
V:1
"^Ex altari tuo, Domine""^Giuseppe Ottavio Pitoni\n(1657-1743)" A12 F4 | G4 A4 _B8 | %2
w: Ex al-|ta- ri tu-|
 A8 (D2 E2 F2 G2 | A2 F2 c6 B2 B4- | B2 A2 A8) ^G4 |[M:4/2] A4 (A2 B2 c2 A2 d4- | d4) ^c4 (f6 ed | %7
w: o, Do\- * * *||* * * mi-|ne, Do\- * * * *|* mi- ne, * *|
 e8) z4 (D2 E2 | F2 D2 A8 ^G4 | c6 BA B4) B4 | c16 | z16 | z8 A8- | A4 F4 G4 A4 | _B8 A8 | %15
w: * Do\- *||* * * * mi-|ne,||Ex|* al- ta- ri|tu- o,|
 (D2 E2 F2 G2 A2 F2 c4- | c2 B2 B6 A2 A4- | A4) ^G4 A4 (E4 | A8 _B4 A2 G2 | F6 ED E8) | %20
w: Do- * * * * * *||* mi- ne, Do\-|||
 (F2 G2 A8) G4 | (G6 F2 E4 D4 | E8) z4 e4- | e4 d8 c4- | c4 B4 c8 | z16 | z8 z4 d4- | %27
w: * * * mi-|ne, * * *|* Chri\-|* stum su\-|* mi- mus,||Chri\-|
 d4 c8 (B2 A2 | B4) B4 c8 | z16 | z8 z4 d4 | c4 A4 (B2 c2 d2 B2 | c6 d2 e4) E4 | z4 E8 D4 | %34
w: * stum su\- *|* mi- mus:||et|ca- ro no\- * * *|* * * stra,|in quem|
 E4 G4 G4 ^F4 | (G4 ^F4) E4 c4- | c4 B4 (c6 BA | G8) z4 d4 | c4 A4 (B4 A4) | A8 z4 A4- | %40
w: cor et ca- ro|no\- * stra, in|* quem cor * *|* et|ca- ro no\- *|stra, in|
 A4 G4 A4 c4 | c4 B4 (c4 G4- | G4 B4 c4) A4 | z4 (G6 F2 F2 ED) | E8 D8 | z16 | z8 z4 G4 | %47
w: * quem cor et|ca- ro no\- *|* * * stra|e\- * * * *|xul- tant,||et|
 F4 D4 (E2 F2 G2 E2 | F6 G2 A4) A4 | z4 A8 G4 | A4 c4 c4 B4 | (c4 B4) A8 | z8 z4 A4- | %53
w: ca- ro no\- * * *|* * * stra,|in quem|cor et ca- ro|no\- * stra,|in|
 A4 G4 A4 c4 | c4 B4 c4 G4 | z8 z4 (c4- | c2 B2 B2 AG A2 D2) d4- | (d4 ^c4) d4 (d4- | %58
w: * quem cor et|ca- ro no- stra|e\-|* * * * * * * xul\-|* * tant e\-|
 d2 =c2 c2 BA) B4[Q:1/4=198] (A4- | %59
w: * * * * * xul- tant,|
[Q:1/4=195] A2[Q:1/4=194] G[Q:1/4=193]F[Q:1/4=191] E4)[Q:1/4=187] z4[Q:1/4=184] B4 | %60
w: * * * * e-|
[Q:1/4=176] A16 |[Q:1/4=170] !fermata!A16 |] %62
w: xul-|tant.|
V:2
 z16 | z16 | z8 D8- | D4 C4 D4 E4 | F8 E8 |[M:4/2] (A,2 B,2 C2 D2 E2 C2 F4- | F2 E2 E6 D2 D4- | %7
w: ||Ex|* al- ta- ri|tu- o,|Do\- * * * * * *||
 D4) ^C4 (D8- | D4 E4 F4 E2 D2 | C8) z8 | E12 C4 | D4 E4 F8 | E8 (D2 E2 F2 G2 | A2 FE D4 E4 F4- | %14
w: * mi- ne,|||Ex al-|ta- ri tu-|o, Do\- * * *||
 F4) E4 F8 | z4 (D2 E2 F2 D2 A,4- | A,4) ^G,4 (C6 B,A, | B,8) (A,2 B,2 C2 D2 | E4 F6 E2 E4- | %19
w: * mi- ne,|Do\- * * * *|* mi- ne, * *|* Do\- * * *||
 E2 D2 D8) ^C4 | D8 z4 (E4- | E4 D4 C6 B,A, | B,4) B,4 A,8 | z16 | z8 z4 A4- | A4 G8 F4- | %26
w: * * * mi-|ne, Do\-||* mi- ne,||Chri\-|* stum su\-|
 F4 E4 F8- | F4 (C4 G8- | G4) G4 E8 | z8 z4 E4- | E4 D4 E4 G4 | G4 ^F4 (G4 F4) | E4 C8 B,4 | %33
w: * mi- mus,|* su\- *|* mi- mus:|in|* quem cor et|ca- ro no\- *|stra, in quem|
 (C6 B,A, G,8) | z4 D4 C4 A,4 | (B,2 C2 D2 B,2 C6 D2) | E4 E4 z4 E4- | E4 D4 E4 G4 | %38
w: cor * * *|et ca- ro|no\- * * * * *|* stra, in|* quem cor et|
 G4 ^F4 (G2 D2 =F4- | F4 E4 F6 ED) | C8 z8 | z4 (F6 E2 E2 DC | D2 G,2) (G8 ^F4) | (G6 =FG A8- | %44
w: ca- ro no\- * *||stra,|e\- * * * *|* * xul\- *|tant, * * *|
 A8) z4 F4- | F4 E4 (F6 ED) | C16 | z16 | z4 D8 ^C4 | D4 F4 F4 E4 | (F4 E4 D8) | C4 G,4 (D6 CB,) | %52
w: * in|* quem cor, * *|||in quem|cor et ca- ro|no\- * *|stra, et ca\- * *|
 A,12 A,4 | C8 C8 | z4 (F6 E2 E2 DC | D2 G,2) (G8 ^F4) | (G6 =FE D8) | G4 E4 A8 | z4 (G6 F2 F2 ED | %59
w: * ro|no- stra|e\- * * * *|* * xul\- *|tant, * * *|e- xul- tant,|e\- * * * *|
 E6 F2 G8- | G4 F4) E8 | !fermata!D16 |] %62
w: |* * xul-|tant.|
V:3
 z16 | z16 | z16 | z16 | z16 |[M:4/2][K:treble-8] A12 F4 | G4 A4 _B8 | A8 (D2 E2 F2 G2 | %8
w: |||||Ex al-|ta- ri tu-|o, Do\- * * *|
 A2 F2 c6 B2 B4- | B2 A2 A8) ^G4 | A4 (E2 F2 G2 E2 A4 | G6 FG A8) | G8 F4 (D2 E2 | F2 D2 _B8 A4 | %14
w: |* * * mi-|ne, Do\- * * * *||mi- ne, Do\- *||
 G6) G2 F4 (D2 E2) | (F2 G2 A8 E4 | F4) E4 A8 | z8 A8- | A4 F4 G4 A4 | _B8 A8 | %20
w: * mi- ne, Do\- *||* mi- ne,|Ex|* al- ta- ri|tu- o,|
 (D2 E2 F2 G2 A2 F2 c4- | c2 B2 B6 A2 A4- | A4) ^G4 A8 | f8 e8 | d6 d2 c8 | z16 | z8 z4 f4- | %27
w: Do\- * * * * * *||* mi- ne,|Chri- stum|su- mi- mus,||Chri\-|
 f4 e8 (d2 c2 | d4) d4 c4 c4- | c4 B4 (c6 BA | G8) z8 | z16 | z4 A8 ^G4 | A4 c4 c4 B4 | (c4 B4 A8 | %35
w: * stum su\- *|* mi- mus: in|* quem cor, * *|||in quem|cor et ca- ro|no\- * *|
 G4 D4 A6 GF) | E8 A8 | z16 | z8 z4 d4- | d4 ^c4 d4 f4 | f4 e4 (f4 e4) | (d8 c6 BA) | G8 z4 (c4- | %43
w: |* stra,||in|* quem cor et|ca- ro no\- *||stra e\-|
 c2 B2 B2 AG A2 D2) (d4- | d4 ^c4) (d6 =cB | A8) z4 A4- | A4 G4 A4 c4 | c4 B4 (c4 B4) | A4 F8 E4 | %49
w: * * * * * * * xul\-|* * tant, * *|* in|* quem cor et|ca- ro no\- *|stra, in quem|
 (F6 ED C8) | z4 c4 f4 d4 | (e2 f2 g2 e2) f4 F4- | F4 E4 (F6 ED | C8) z4 G4 | F4 D4 (G4 C4) | %55
w: cor * * *|et ca- ro|no\- * * * stra, in|* quem cor * *|* et|ca- ro no\- *|
 (G6 AB c8) | z4 (G6 F2 F2 ED) | E8 (D6 EF | G8) z4 (d4- | d2 c2 c2 BA B8 | ^c4) (d8 c4) | %61
w: stra * * *|e\- * * * *|xul- tant, * *|* e\-||* xul\- *|
 !fermata!d16 |] %62
w: tant.|
V:4
 z16 | z16 | z16 | z16 | z16 |[M:4/2] z16 | z16 | z8 D,8- | D,4 C,4 D,4 E,4 | F,8 E,8 | %10
w: |||||||Ex|* al- ta- ri|tu- o,|
 (A,,2 B,,2 C,2 D,2 E,2 C,2 F,4- | F,2 E,2 E,6 D,2 D,4- | D,4) ^C,4 D,8 | z16 | z16 | D,12 C,4 | %16
w: Do- * * * * * *||* mi- ne,|||Ex al-|
 D,4 E,4 F,8 | E,8 z4 (A,2 B,2 | C2 A,2 D8) ^C4 | D8 z8 | z4 (D,2 E,2 F,2 D,2 E,2 F,2 | %21
w: ta- ri tu-|o, Do- *|* * * mi-|ne,|Do- * * * * *|
 G,8 A,4 F,4 | E,6) E,2 A,,8 | z16 | z16 | _B,8 A,8 | G,6 G,2 F,8 | (A,8 G,8- | G,4) G,4 C,4 A,4- | %29
w: |* mi- ne,|||Chri- stum|su- mi- mus,|su\- *|* mi- mus: in|
 A,4 ^G,4 A,4 C4 | C4 B,4 (C4 B,4) | (A,8 G,4 D,4 | A,6 G,F, E,8) | A,,8 z8 | z16 | z8 z4 A,4- | %36
w: * quem cor et|ca- ro no\- *|||stra,||in|
 A,4 ^G,4 A,4 C4 | C4 B,4 (C4 B,4 | A,8 G,4 D,4 | A,8) D,8 | z16 | z8 z4 (C4- | %42
w: * qem cor et|ca- ro no\- *||* stra||e\-|
 C2 B,2 B,2 A,G,) A,8 | G,4 E,4 (F,4 D,4) | A,8 z4 D,4- | D,4 ^C,4 D,4 F,4 | F,4 E,4 (F,4 E,4 | %47
w: * * * * * xul-|tant, e- xul\- *|tant, in|* quem cor et|ca- ro no\- *|
 D,8 C,4 G,,4 | D,6 C,_B,, A,,8) | D,8 z8 | z16 | z8 z4 D,4- | D,4 ^C,4 D,4 F,4 | %53
w: ||stra,||in|* quem cor et|
 F,4 E,4 (F,4 E,4 | D,8) C,4 (C4- | C2 B,2 B,2 A,G,) A,8 | G,8 z8 | z4 (G,6 F,2 F,2 E,D, | %58
w: ca- ro no\- *|* stra e\-|* * * * * xul-|tant,|e\- * * * *|
 E,6 F,2 G,4 D,4 | A,8 G,8) | A,16 | !fermata!D,16 |] %62
w: ||xul-|tant.|

